FINK
CUT[KOMMT FREUNDE KOMMT AUFS LAND]
REG[Europa, Mitteleuropa, Deutschland]
KEY[F0323  16  C 2/4]
MEL[1_  -5_-3_-4_-6_  -5__.
    -3_  -4_.-3-4_-5_  -3__-1_
    -5_  1_.-71_2_  -7__-5_
    2_  3_234_2_  3_.21_
    1_  -7_1321-7_  1__0_ //] >>
FCT[Jugend - Lied, Natur, Wander - Lied]
